svgs/duotone/book-circle-arrow-right.svg

<svg xmlns="http://www.w3.org/2000/svg" viewBox="0 0 640 512"><!-- Font Awesome Pro 6.0.0-alpha2 by @fontawesome - https://fontawesome.com License - https://fontawesome.com/license (Commercial License) --><defs><style>.fa-secondary{opacity:.4}</style></defs><path d="M339.367 448H96C78.328 448 64 433.672 64 416C64 398.326 78.328 384 96 384H320.805C320.328 378.723 320 373.402 320 368C320 287.461 374.164 219.711 448 198.797V24C448 10.744 437.254 0 424 0H96C42.98 0 0 42.98 0 96V416C0 469.02 42.98 512 96 512H395C371.621 495.568 352.477 473.613 339.367 448Z" class="fa-secondary"/><path d="M496 224C416.461 224 352 288.463 352 368S416.461 512 496 512S640 447.537 640 368S575.539 224 496 224ZM571.312 379.312L515.312 435.312C512.188 438.438 508.094 440 504 440S495.812 438.438 492.688 435.312C486.438 429.062 486.438 418.937 492.688 412.688L521.375 384H432C423.164 384 416 376.836 416 368S423.164 352 432 352H521.375L492.688 323.312C486.438 317.062 486.438 306.937 492.688 300.688S509.063 294.438 515.312 300.688L571.312 356.688C577.562 362.938 577.562 373.062 571.312 379.312Z" class="fa-primary"/></svg>

<svg xmlns="http://www.w3.org/2000/svg" viewBox="0 0 640 512"><!--! Font Awesome Pro 6.3.0 by @fontawesome - https://fontawesome.com License - https://fontawesome.com/license (Commercial License) Copyright 2023 Fonticons, Inc. --><defs><style>.fa-secondary{opacity:.4}</style></defs><path class="fa-primary" d="M496 224C416.5 224 352 288.5 352 368s64.46 144 144 144s144-64.46 144-144S575.5 224 496 224zM571.3 379.3l-56 56C512.2 438.4 508.1 440 504 440s-8.188-1.562-11.31-4.688c-6.25-6.25-6.25-16.38 0-22.62L521.4 384H432c-8.836 0-15.1-7.164-15.1-16S423.2 352 432 352h89.38l-28.69-28.69c-6.25-6.25-6.25-16.38 0-22.62s16.38-6.25 22.62 0l56 56C577.6 362.9 577.6 373.1 571.3 379.3z"/><path class="fa-secondary" d="M339.4 448H96c-17.67 0-32-14.33-32-32c0-17.67 14.33-32 32-32h224.8C320.3 378.7 320 373.4 320 368c0-80.54 54.16-148.3 128-169.2V48C448 21.49 426.5 0 400 0H96C42.98 0 0 42.98 0 96v320c0 53.02 42.98 96 96 96h299C371.6 495.6 352.5 473.6 339.4 448z"/></svg>
